Point/img/whatsUp.svg

<svg width="83" height="88" viewBox="0 0 83 88" fill="none" xmlns="http://www.w3.org/2000/svg">
<path fill-rule="evenodd" clip-rule="evenodd" d="M48.7915 2.61635C38.9515 1.63801 20.5235 -1.2603 12.3254 4.10565C4.05424 9.51939 2.50755 19.9246 0.912865 29.4755C-0.519165 38.0523 3.53456 46.049 5.76585 54.4639C8.18983 63.6054 3.15997 75.389 10.196 81.9127C17.538 88.7202 35.597 88.3156 45.6506 86.8999C55.1359 85.5643 58.1927 78.8098 66.0556 73.4959C74.1444 68.0294 76.6902 74.9763 79.6171 65.8479C82.5462 56.7128 83.6082 39.9491 79.6171 31.2002C76.1319 23.5601 74.4997 14.8905 67.8518 9.57547C60.9788 4.08049 57.6536 3.49746 48.7915 2.61635Z" fill="#E1F0EE"/>
<g clip-path="url(#clip0_639_55)">
<path d="M27.226 67.1655L28.2307 67.668C32.4178 70.18 37.1069 71.3523 41.7962 71.3523C56.5338 71.3523 68.5918 59.2944 68.5918 44.5568C68.5918 37.523 65.7446 30.6566 60.7206 25.6324C55.6964 20.6081 48.9973 17.7612 41.7962 17.7612C27.0586 17.7612 15.0004 29.8192 15.168 44.7244C15.168 49.7484 16.6752 54.6053 19.1872 58.7919L19.8571 59.7969L17.1777 69.6778L27.226 67.1655Z" fill="#00E676"/>
<path d="M63.5676 22.9527C57.8735 17.0913 50.0023 13.9092 41.9636 13.9092C24.8816 13.9092 11.1488 27.8093 11.3161 44.724C11.3161 50.0832 12.8234 55.275 15.3356 59.9641L10.9812 75.874L27.226 71.6871C31.7478 74.1994 36.7718 75.3717 41.7963 75.3717C58.7109 75.3717 72.4437 61.4713 72.4437 44.5569C72.4437 36.3506 69.2616 28.6468 63.5678 22.9527H63.5676ZM41.9636 70.1801C37.4418 70.1801 32.9201 69.008 29.0682 66.6634L28.0634 66.1609L18.3501 68.6729L20.8621 59.1271L20.1923 58.1221C12.8234 46.2317 16.3404 30.4889 28.3984 23.12C40.4563 15.7513 56.0313 19.2683 63.4002 31.3263C70.7689 43.3843 67.2519 58.9593 55.1942 66.3282C51.342 68.8402 46.6529 70.1799 41.9636 70.1799V70.1801ZM56.7012 51.5909L54.859 50.7535C54.859 50.7535 52.1797 49.5811 50.5048 48.7437C50.3372 48.7437 50.1699 48.5761 50.0023 48.5761C49.4998 48.5761 49.1649 48.7437 48.83 48.9113C48.83 48.9113 48.6627 49.0786 46.318 51.7582C46.1504 52.0931 45.8155 52.2607 45.4806 52.2607H45.313C45.1457 52.2607 44.8107 52.0931 44.6432 51.9258L43.8058 51.5909C41.9636 50.7535 40.289 49.7485 38.9491 48.4088C38.6142 48.0739 38.1117 47.739 37.7768 47.4041C36.6044 46.2317 35.4321 44.8918 34.5949 43.3846L34.4273 43.0496C34.26 42.8821 34.26 42.7147 34.0924 42.3798C34.0924 42.0449 34.0924 41.71 34.26 41.5424C34.26 41.5424 34.9298 40.705 35.4321 40.2027C35.7673 39.8676 35.9346 39.3653 36.2695 39.0304C36.6044 38.5279 36.772 37.8581 36.6044 37.3556C36.4371 36.5182 34.4273 31.9964 33.9251 30.9917C33.5899 30.4892 33.2553 30.3218 32.7528 30.1542H30.9106C30.5754 30.1542 30.2408 30.3218 29.9056 30.3218L29.738 30.4892C29.4031 30.6567 29.0682 30.9917 28.7333 31.159C28.3984 31.4942 28.2308 31.8288 27.8959 32.164C26.7235 33.6712 26.0537 35.5134 26.0537 37.3556C26.0537 38.6952 26.3886 40.0351 26.8911 41.2075L27.0587 41.71C28.5659 44.8918 30.5754 47.739 33.2553 50.251L33.9251 50.9208C34.4273 51.4233 34.9298 51.7582 35.2648 52.2605C38.7818 55.2752 42.801 57.4523 47.3228 58.6246C47.8252 58.792 48.4951 58.792 48.9976 58.9595H50.6722C51.5096 58.9595 52.5143 58.6246 53.1844 58.2897C53.6867 57.9548 54.0216 57.9548 54.3565 57.6199L54.6917 57.2847C55.0266 56.9498 55.3615 56.7825 55.6964 56.4475C56.0313 56.1126 56.3662 55.7777 56.5338 55.4426C56.8687 54.7727 57.0361 53.9353 57.2037 53.0981V51.9258C57.2037 51.9258 57.0361 51.7582 56.7012 51.5909Z" fill="white"/>
</g>
<defs>
<clipPath id="clip0_639_55">
<rect width="61.4693" height="62.1818" fill="white" transform="translate(10.9773 13.9092)"/>
</clipPath>
</defs>
</svg>

<svg width="83" height="88" fill="none" xmlns="http://www.w3.org/2000/svg"><path fill-rule="evenodd" clip-rule="evenodd" d="M48.791 2.616c-9.84-.978-28.267-3.876-36.466 1.49C4.055 9.519 2.508 19.925.913 29.476-.52 38.052 3.535 46.049 5.766 54.463c2.424 9.141-2.606 20.925 4.43 27.449 7.342 6.807 25.401 6.403 35.455 4.987 9.485-1.336 12.542-8.09 20.405-13.404 8.088-5.467 10.634 1.48 13.561-7.648 2.93-9.135 3.991-25.899 0-34.648-3.485-7.64-5.117-16.31-11.765-21.625-6.873-5.495-10.198-6.078-19.06-6.959z" fill="#E1F0EE"/><g clip-path="url(#clip0_639_55)"><path d="M27.226 67.165l1.005.503c4.187 2.512 8.876 3.684 13.565 3.684 14.738 0 26.796-12.058 26.796-26.795 0-7.034-2.847-13.9-7.871-18.925-5.025-5.024-11.724-7.87-18.925-7.87-14.737 0-26.796 12.057-26.628 26.962 0 5.024 1.507 9.881 4.02 14.068l.67 1.005-2.68 9.88 10.048-2.512z" fill="#00E676"/><path d="M63.568 22.953c-5.694-5.862-13.566-9.044-21.604-9.044-17.082 0-30.815 13.9-30.648 30.815 0 5.36 1.507 10.551 4.02 15.24l-4.355 15.91 16.245-4.187c4.522 2.512 9.546 3.685 14.57 3.685 16.915 0 30.648-13.9 30.648-30.815 0-8.206-3.182-15.91-8.876-21.604zM41.964 70.18c-4.522 0-9.044-1.172-12.896-3.517l-1.005-.502-9.713 2.512 2.512-9.546-.67-1.005c-7.369-11.89-3.852-27.633 8.206-35.002 12.058-7.369 27.633-3.852 35.002 8.206 7.369 12.058 3.852 27.633-8.206 35.002-3.852 2.512-8.541 3.852-13.23 3.852zM56.7 51.59l-1.842-.837s-2.68-1.172-4.354-2.01c-.168 0-.335-.167-.503-.167-.502 0-.837.168-1.172.335 0 0-.167.168-2.512 2.847a.921.921 0 01-.837.503h-.168c-.167 0-.502-.168-.67-.335l-.837-.335c-1.842-.837-3.517-1.843-4.857-3.182-.335-.335-.837-.67-1.172-1.005-1.173-1.172-2.345-2.512-3.182-4.02l-.168-.334c-.167-.168-.167-.335-.335-.67 0-.335 0-.67.168-.838 0 0 .67-.837 1.172-1.34.335-.334.503-.837.837-1.172.335-.502.503-1.172.335-1.674-.167-.838-2.177-5.36-2.679-6.364-.335-.503-.67-.67-1.172-.838H30.91c-.336 0-.67.168-1.005.168l-.168.167c-.335.168-.67.503-1.005.67-.335.335-.502.67-.837 1.005-1.172 1.507-1.842 3.35-1.842 5.192 0 1.34.335 2.68.837 3.852l.168.502c1.507 3.182 3.516 6.029 6.196 8.541l.67.67c.502.502 1.005.837 1.34 1.34 3.517 3.014 7.536 5.191 12.058 6.364.502.167 1.172.167 1.675.334h1.674c.838 0 1.842-.334 2.512-.67.503-.334.838-.334 1.172-.67l.336-.334c.335-.335.67-.502 1.004-.837.335-.335.67-.67.838-1.005.335-.67.502-1.508.67-2.345v-1.172s-.168-.168-.503-.335z" fill="#fff"/></g><defs><clipPath id="clip0_639_55"><path fill="#fff" transform="translate(10.977 13.91)" d="M0 0h61.469v62.182H0z"/></clipPath></defs></svg>
